images/icons/v2/archive-outline-16.svg

<svg height="16" viewBox="0 0 16 16" width="16" xmlns="http://www.w3.org/2000/svg"><path d="m9.75 9h-3.5a.75.75 0 0 1 -.75-.75.75.75 0 0 1 .75-.75h3.5a.75.75 0 0 1 .75.75.75.75 0 0 1 -.75.75zm5.229-6.5v3a.5.5 0 0 1 -.5.5h-.479v7a1 1 0 0 1 -1 1h-10a1 1 0 0 1 -1-1v-7h-.521a.5.5 0 0 1 -.5-.5v-3a.5.5 0 0 1 .5-.5h13a.5.5 0 0 1 .5.5zm-12.979 2.5h11.979v-2h-12v2zm11 1h-10v7h10z"/></svg>

<svg xmlns="http://www.w3.org/2000/svg" width="16" height="16" viewBox="0 0 16 16"><title>archive-outline-16</title><path d="M9.75,9H6.25a.75.75,0,0,1-.75-.75h0a.75.75,0,0,1,.75-.75h3.5a.75.75,0,0,1,.75.75h0A.75.75,0,0,1,9.75,9Zm5.229-6.5v3a.5.5,0,0,1-.5.5H14v7a1,1,0,0,1-1,1H3a1,1,0,0,1-1-1V6H1.479a.5.5,0,0,1-.5-.5v-3a.5.5,0,0,1,.5-.5h13A.5.5,0,0,1,14.979,2.5ZM2,5H13.979V3h-12V5ZM13,6H3v7H13Z"/></svg>
